X: 192
T:The Rat in the Thatch
M:4/4
N:Paul McGrattan's workshop 9/11/99
H:Within A Mile of Dublin
O:Irish
R:Reel
Z:Thomas Keays
K:G
P:A
G2dc BdGB | dG(3Bcd ecAF | G2dc Bcde | dBcA BGAF :|
P:B
egfe egfe | d2fd AdFd | egfg efga | b2af geed |
G2dc Bcde | d2Fd AGFA | G2dc Bcde | dBcA BGAF |]
<end>
<start>
